assets/logos/microsoft-luis.svg

<svg width="80" height="80" viewBox="0 0 80 80" fill="none" xmlns="http://www.w3.org/2000/svg">
<rect x="8" y="8" width="64" height="64" rx="12" fill="#009480"/>
<path fill-rule="evenodd" clip-rule="evenodd" d="M56.7344 34.0855C56.7344 45.1233 49.7806 51.6271 43.5315 55.6007C37.5287 59.4299 30.889 61.1705 23.5617 59.846C23.346 59.8028 23.1355 59.7374 22.9333 59.6507C23.0267 58.1988 23.0267 56.7129 23.2135 55.2611C23.2135 54.9469 23.9098 54.6582 24.3513 54.4714C26.9409 53.3337 29.7428 52.5441 32.1202 51.0243C33.2946 50.3176 34.3072 49.3716 35.0919 48.2478C32.348 47.0354 30.016 45.0509 28.3803 42.5362C26.7446 40.0216 25.8757 37.0854 25.8796 34.0855C25.8796 29.9962 27.5041 26.0743 30.3957 23.1827C33.2873 20.2911 37.2091 18.6666 41.2985 18.6666C45.3878 18.6666 49.3097 20.2911 52.2013 23.1827C55.0929 26.0743 56.7174 29.9962 56.7174 34.0855H56.7344Z" fill="white"/>
<path fill-rule="evenodd" clip-rule="evenodd" d="M51.64 34.0262C51.6298 36.0434 51.021 38.0122 49.8908 39.6832C48.7606 41.3541 47.1598 42.6519 45.2912 43.4122C43.4227 44.1724 41.3705 44.3609 39.3948 43.9537C37.419 43.5465 35.6086 42.562 34.1929 41.1248C32.7773 39.6877 31.8201 37.8627 31.4426 35.8811C31.0652 33.8994 31.2845 31.8503 32.0728 29.9934C32.861 28.1365 34.1828 26.5554 35.8705 25.4504C37.5582 24.3455 39.536 23.7664 41.5532 23.7865C44.2465 23.8134 46.8197 24.9057 48.7099 26.8246C50.6001 28.7434 51.6536 31.3327 51.64 34.0262Z" fill="#414141"/>
<path fill-rule="evenodd" clip-rule="evenodd" d="M39.5664 39.4602V38.5092C39.4256 38.5203 39.2841 38.5002 39.152 38.4503C39.02 38.4004 38.9005 38.3219 38.8022 38.2205C38.6379 37.9692 38.5604 37.671 38.5815 37.3715V35.6988C38.5815 34.7903 38.2673 34.2469 37.6645 34.0601C37.9836 33.9183 38.2466 33.6747 38.4125 33.3675C38.5785 33.0602 38.6379 32.7066 38.5815 32.362V30.7149C38.5815 29.9507 38.9041 29.5771 39.5664 29.5771V28.5922C38.9718 28.5403 38.3806 28.7232 37.9192 29.1016C37.7272 29.3146 37.5808 29.5645 37.4888 29.8361C37.3968 30.1076 37.3612 30.3951 37.3843 30.6809V32.3196C37.3843 33.1686 37.0701 33.5507 36.4333 33.5507V34.5017C37.0701 34.5017 37.3843 34.9092 37.3843 35.6649V37.363C37.3581 37.649 37.3922 37.9373 37.4844 38.2093C37.5765 38.4813 37.7246 38.731 37.9192 38.9422C38.3904 39.2993 38.9774 39.4688 39.5664 39.4177V39.4602ZM43.3277 38.5092V39.4602C43.9125 39.5083 44.4948 39.3424 44.9664 38.9932C45.1575 38.7797 45.3035 38.5297 45.3954 38.2583C45.4873 37.9869 45.5234 37.6996 45.5013 37.4139V35.7158C45.5013 34.9262 45.8154 34.5441 46.4522 34.5441V33.5847C45.8154 33.5847 45.5013 33.1771 45.5013 32.3535V30.6554C45.5219 30.3698 45.4852 30.083 45.3933 29.8118C45.3015 29.5406 45.1563 29.2905 44.9664 29.0762C44.5076 28.699 43.9195 28.5162 43.3277 28.5667V29.5432C43.99 29.5432 44.3041 29.9252 44.3041 30.6809V32.3281C44.2477 32.6727 44.3071 33.0262 44.4731 33.3335C44.639 33.6407 44.902 33.8843 45.2211 34.0262C44.9077 34.1583 44.6474 34.3913 44.4813 34.6881C44.3152 34.9849 44.2528 35.3286 44.3041 35.6649V37.312C44.3291 37.6119 44.2513 37.9114 44.0834 38.1611C43.9856 38.2603 43.8673 38.3368 43.7367 38.3852C43.6061 38.4336 43.4665 38.4528 43.3277 38.4413V38.5092Z" fill="white"/>
</svg>

<svg xmlns="http://www.w3.org/2000/svg" width="80" height="80" fill="none" viewBox="0 0 80 80"><rect width="64" height="64" x="8" y="8" fill="#009480" rx="12"/><path fill="#fff" fill-rule="evenodd" d="M56.734 34.086c0 11.037-6.953 17.541-13.202 21.515-6.003 3.829-12.643 5.57-19.97 4.245a3.2 3.2 0 0 1-.629-.195c.094-1.452.094-2.938.28-4.39 0-.314.697-.603 1.138-.79 2.59-1.137 5.392-1.927 7.77-3.447a9.8 9.8 0 0 0 2.97-2.776 15.46 15.46 0 0 1-9.211-14.162 15.419 15.419 0 0 1 30.837 0z" clip-rule="evenodd"/><path fill="#414141" fill-rule="evenodd" d="M51.64 34.026a10.19 10.19 0 1 1-20.378-.103 10.19 10.19 0 0 1 20.378.103" clip-rule="evenodd"/><path fill="#fff" fill-rule="evenodd" d="M39.566 39.46v-.95a.96.96 0 0 1-.764-.29 1.38 1.38 0 0 1-.22-.849V35.7c0-.909-.315-1.452-.918-1.639a1.58 1.58 0 0 0 .917-1.698v-1.647c0-.764.323-1.138.985-1.138v-.985a2.28 2.28 0 0 0-1.647.51 2.1 2.1 0 0 0-.535 1.579v1.639c0 .849-.314 1.23-.95 1.23v.952c.636 0 .95.407.95 1.163v1.698a2.05 2.05 0 0 0 .535 1.58 2.4 2.4 0 0 0 1.647.475zm3.762-.95v.95a2.42 2.42 0 0 0 1.638-.467 2.12 2.12 0 0 0 .535-1.58v-1.697c0-.79.314-1.172.951-1.172v-.96c-.637 0-.95-.407-.95-1.23v-1.699a2.15 2.15 0 0 0-.536-1.579 2.28 2.28 0 0 0-1.638-.51v.977c.662 0 .976.382.976 1.138v1.647a1.58 1.58 0 0 0 .917 1.698 1.53 1.53 0 0 0-.917 1.639v1.647c.025.3-.053.6-.22.85a.95.95 0 0 1-.756.28z" clip-rule="evenodd"/></svg>
